X: 18287
T: Humours Of Swanlinbar, The
R: reel
M: 4/4
K: Dmajor
AGEG AGE2|AGEG BGE2|AGEG AGEG|+trill+F2DF AFD2|
AGEG AGEG|AGEG BGE2|AGEG AGEG|~F2DF AFD2|
ceBd ceBA|GE F/G/A BGE2|c2 (3Bcd c2 BA|+trill+F2 DF AFD2|
ceBd ceBA|GE F/G/A BGE2|c2 (3Bcd c2 BA|+trill+ F2 DF AD (3FGA|
g2eg bgea|~g2eg bgeg|f2 da g2 fa|fede fggf|
g2 eg bgef|~g2eg fed2|g2eg bge2|fede fg2f|
|:g~e2d edBA|GE F/G/A BGE2|c2 (3Bcd c2 BA|+trill+F2DF AFD2:|

